X: 13974
T: Francie Campbell's
R: polka
M: 2/4
K: Gmajor
|:Bd AB/A/|GE ED|EG G/A/G/E/|DG A2|
Bd AB/A/|GE ED|EG G/A/G/E/|DG G2:|
|:Bd g>d|ed g2|Bd e/f/g/e/|dB AG/A/|
Bd ~g>d|ed ~g>e|dB AG/A/|BG G2:|

